X:1
T:Ruth (Webster), CM
T:Ruth (Webster), CM
T:Lorin Webster, 1905
T:Public Domain Courtesy of the Cyber Hymnal™
C:Lorin Webster, 1905
Z:Public Domain
Z:Courtesy of the Cyber Hymnal™
%%score ( 1 2 ) ( 3 4 )
L:1/8
Q:1/4=110
M:4/4
K:Eb
V:1 treble 
V:2 treble 
V:3 bass 
V:4 bass 
V:1
 E2 | [EG]2 [EG]2 [DB]2 [DB]2 | E2 E2 [EA]2 [EA]2 | [EG]2 [DF]2 [CE]2 [CF]2 | G6 [DG]2 | %5
 [CG]2 [GB]2 [FA]2 [=EG]2 | [Fc]2 [Fc]2 [EF]2 [EF]2 | [DA]2 [CD]2 [B,D]2 [A,D]2 | [G,E]6 |] %9
V:2
 E2 | x8 | E2 E2 x4 | x8 | (D2 F2 E2) x2 | x8 | x8 | x8 | x6 |] %9
V:3
 [E,G,]2 | [E,B,]2 [E,B,]2 [B,,B,]2 [B,,A,]2 | [E,G,]2 [D,G,]2 [C,A,]2 [_C,A,]2 | %3
 [B,,B,]2 [=B,,A,]2 [C,G,]2 [A,,C]2 | ([G,,=B,]2 [=B,,D]2 [C,C]2) [D,B,]2 | %5
 [E,C]2 [=E,_D]2 [F,C]2 [G,B,]2 | [A,C]2 [A,C]2 [=A,C]2 [A,C]2 | B,2 [B,,A,]2 [B,,G,]2 [B,,F,]2 | %8
 [E,G,]6 |] %9
V:4
 x2 | x8 | x8 | x8 | x8 | x8 | x8 | B,2 x6 | x6 |] %9

